X: 3
T: Black Pat's
M: 4/4
L: 1/8
R: reel
K: Gmaj
|: ~G3 B e2 dB | ADBA GE ~E2 | ~G3 B edBA | B/c/d gb a2 ga | 
bg ~g2 aged | ABdB AGED | ~G3 B eddB |AGBA ~G3 z :|
DG ~G2 GEDE | ~G3 A Be ~e2 | d2 BG dGBG | ADBA GE ~E2 | 
GFGA GEDE | ~G3 B dega | bg ~g2 ageg | dgba ~g3 z | 
d3 B BAGE | DEGA Be ~e2 | d2 BG dGBG | ADBA GE ~E2 | 
GFGA GEDE | ~G3 B dega | bg ~g2 ageg | dgba ~g3 z ||
|: ~b3 g egde | gedB ~G3 z | b2 gd b2 gd | ea ~a2 ~a2 ga |
b^abg egdg | gedA B/c/d ga | b2 ag eddB | AGGF ~G3 z :|
COMMENT:
